OBS Studio/Fluent Dark Grey/dots-vert.svg

<svg width="24" height="24" fill="none" viewBox="0 0 24 24" xmlns="http://www.w3.org/2000/svg"><path d="m12 8c-1.1046 0-2-0.89543-2-2s0.8954-2 2-2 2 0.89543 2 2-0.8954 2-2 2zm0 6c-1.1046 0-2-0.8954-2-2s0.8954-2 2-2 2 0.8954 2 2-0.8954 2-2 2zm-2 4c0 1.1046 0.8954 2 2 2s2-0.8954 2-2-0.8954-2-2-2-2 0.8954-2 2z" fill="#fff"/></svg>

<svg width="24" height="24" viewBox="0 0 24 24" fill="none" xmlns="http://www.w3.org/2000/svg">
<path d="M12 8C10.8954 8 10 7.10457 10 6C10 4.89543 10.8954 4 12 4C13.1046 4 14 4.89543 14 6C14 7.10457 13.1046 8 12 8ZM12 14C10.8954 14 10 13.1046 10 12C10 10.8954 10.8954 10 12 10C13.1046 10 14 10.8954 14 12C14 13.1046 13.1046 14 12 14ZM10 18C10 19.1046 10.8954 20 12 20C13.1046 20 14 19.1046 14 18C14 16.8954 13.1046 16 12 16C10.8954 16 10 16.8954 10 18Z" fill="white"/>
</svg>
